twitch.svg

<svg viewBox="0 0 24 24" version="1.1" xmlns="http://www.w3.org/2000/svg" xmlns:xlink="http://www.w3.org/1999/xlink">
    <title>Twitch</title>
    <polygon fill="#FFFFFF" points="18.8503254 11.1428571 15.4229935 14.5714286 11.9956616 14.5714286 8.9967462 17.5714286 8.9967462 14.5714286 5.14099783 14.5714286 5.14099783 1.71428571 18.8503254 1.71428571"></polygon>
    <path d="M20.5639913,0 L20.5639913,12 L12.8524946,19.7142857 L9.42516269,19.7142857 L5.14099783,24 L5.14099783,19.7142857 L0,19.7142857 L0,4.28571429 L4.28416486,0 L20.5639913,0 Z M18.8503254,1.71428571 L5.14099783,1.71428571 L5.14099783,14.5714286 L8.9967462,14.5714286 L8.9967462,17.5714286 L11.9956616,14.5714286 L15.4229935,14.5714286 L18.8503254,11.1428571 L18.8503254,1.71428571 Z M16.2798265,4.71428571 L16.2798265,9.85714286 L14.5661605,9.85714286 L14.5661605,4.71428571 L16.2798265,4.71428571 Z M11.5672451,4.71428571 L11.5672451,9.85714286 L9.85357918,9.85714286 L9.85357918,4.71428571 L11.5672451,4.71428571 Z" fill="#9146FF"></path>
</svg>

<svg viewBox="0 0 24 24" xmlns="http://www.w3.org/2000/svg"><path fill="#FFF" d="m18.85 11.143-3.427 3.428h-3.427l-3 3v-3H5.142V1.714h13.71z"/><path d="M20.564 0v12l-7.712 7.714H9.425L5.141 24v-4.286H0V4.286L4.284 0h16.28ZM18.85 1.714H5.141v12.857h3.856v3l2.999-3h3.427l3.427-3.428V1.714Zm-2.57 3v5.143h-1.714V4.714h1.714Zm-4.713 0v5.143H9.854V4.714h1.713Z" fill="#9146FF"/></svg>
